X:1
T:Title
%%score { ( 1 3 4 ) | ( 2 5 ) }
L:1/8
M:4/4
K:D
V:1 treble nm="Grand Piano"
V:3 treble 
V:4 treble 
V:2 bass 
V:5 bass 
V:1
 z4 z2[Q:1/4=100] D>E | F>G A>B A2 FD | [CE]2 D4 D>D | [DG]2 [DB]2 A2 D2 |[M:3/4] [CE]6 | %5
[M:1/4] [CE]>[DF] |[M:4/4] [EG]2 [EG]2 z2 z G | F>E [DF]>[EG] [FA]2 F>F | E2 c2 c2 B2 | A6 z2 | %10
 [FA]2 [Fd]>[Fc] [FB]>[FA] [DF]>G | z2 [FA]6 | [A,FA]2 [Fd]>[Fc] [FB]>[FA] [EG]>[^DF] | %13
[M:3/4] [EG]6 |[M:1/4] [A,EG]2 |[M:4/4] [EG]>[^DF] [EG]>[FA] [GB]2 [FA]>G | F2 A4 [FA]2 | %17
 [EA]>[EB] [Ac]>[Ad] [^Ge]2 [Ge]2 | e6 A2 | [FA]2 [Fd]>[Fc] [FB]>[FA] [DF]>G | z2 [FA]6 | %21
 [A,FA]2 [Fd]>[Fc] [FB]>[FA] [EG]>[^DF] |[M:3/4] [EG]6 |[M:1/4] [A,EG]2 | %24
[M:4/4] [EG]>[^DF] [EG]>[FA] [GB]2 [FA]>G | F2 A4 F2 | GABd e3 d |[M:3/4] [Fd]6 |] %28
V:2
 z4 z2 [D,F,]>[D,G,D] | [D,A,D]>[D,B,D] [D,F,D]>[D,G,D] [D,F,D]2 [D,A,D][D,F,] | %2
 [A,,G,]2 [D,F,]4 [D,F,]>[D,F,] | [B,,G,]2 [G,,G,]2 [D,F,D]2 [B,,^G,]2 |[M:3/4] [A,,A,]6 | %5
[M:1/4] [A,,A,]>[A,,A,] |[M:4/4] [C,A,]2 [A,,A,]2 [C,A,]2 z E | %7
 [D,A,D]>[D,A,C] [A,,A,]>[A,,A,] [D,A,]2 [D,A,D]>[D,A,D] | [E,A,C]2 [E,A,E]2 [E,^G,D]2 [E,G,D]2 | %9
 C4 z4 | [D,A,]2 [A,,A,]>[A,,A,] [D,A,]2 z z/ E/ | D,2 A,,2 D,2 A,,2 | %12
 D,2 [A,,A,]>[A,,A,] [D,A,]2 [A,,A,]2 |[M:3/4] [C,A,]2 A,,2 C,2 |[M:1/4] A,,2 | %15
[M:4/4] [C,A,]2 [A,,A,]2 [C,A,]2 z z/ E/ | [D,A,D]2 [F,A,D]4 [^D,=C]2 | %17
 [E,C]2 [E,E]2 [E,D]2 [E,D]2 | [A,CG]8 | [D,A,]2 [A,,A,]>[A,,A,] [D,A,]2 z z/ E/ | %20
 D,2 A,,2 D,2 A,,2 | D,2 [A,,A,]>[A,,A,] [D,A,]2 [A,,A,]2 |[M:3/4] [C,A,]2 A,,2 C,2 |[M:1/4] A,,2 | %24
[M:4/4] [C,A,]2 [A,,A,]2 [C,A,]2 z z/ E/ | [D,A,D]2 [F,D]4 [D,A,D]2 | %26
 [G,B,D]2 [E,D]2[K:treble] [A,CG]3 [A,G] |[M:3/4][K:bass] [D,A,]6 |] %28
V:3
 x8 | x8 | x8 | x8 |[M:3/4] x6 |[M:1/4] x2 |[M:4/4] z4 [EG]4 | x8 | x8 | z4 G2 z2 | x8 | %11
 [A,FA]2 A,2 A,2 A,2 | x8 |[M:3/4] z2 A,2 A,2 |[M:1/4] x2 |[M:4/4] x8 | x8 | x8 | x8 | x8 | %20
 [A,FA]2 A,2 A,2 A,2 | x8 |[M:3/4] z2 A,2 A,2 |[M:1/4] x2 |[M:4/4] x8 | x8 | z2 G2 z4 | %27
[M:3/4] x6 |] %28
V:4
 x8 | x8 | x8 | x8 |[M:3/4] x6 |[M:1/4] x2 |[M:4/4] z4 z2 A,2 | x8 | x8 | x8 | x8 | x8 | x8 | %13
[M:3/4] x6 |[M:1/4] x2 |[M:4/4] x8 | x8 | x8 | x8 | x8 | x8 | x8 |[M:3/4] x6 |[M:1/4] x2 | %24
[M:4/4] x8 | x8 | x8 |[M:3/4] x6 |] %28
V:5
 x8 | x8 | x8 | x8 |[M:3/4] x6 |[M:1/4] x2 |[M:4/4] z4 z2 A,,2 | x8 | x8 | A,6 z2 | %10
 z4 z2 [A,,A,]2 | x8 | x8 |[M:3/4] x6 |[M:1/4] x2 |[M:4/4] z4 z2 [A,,A,]2 | x8 | x8 | x8 | %19
 z4 z2 [A,,A,]2 | x8 | x8 |[M:3/4] x6 |[M:1/4] x2 |[M:4/4] z4 z2 [A,,A,]2 | x8 | x4[K:treble] x4 | %27
[M:3/4][K:bass] x6 |] %28

